!!!COM: Ives, Charles
!!!CDT: 1874/10/20/-1954/05/19/
!!!OTL: Spring Song
!!!GNM: 65/114
!!!ODT: 1904///
!!!PDT: 1922///
!!!OPR: 114 Songs
!!!OMD: Allegretto
**kern	**kern	**dynam	**kern	**dynam	**text
*staff3	*staff2	*staff2/3	*staff1	*staff1	*staff1
*Ipiano	*Ipiano	*Ipiano	*Ivox	*Ivox	*Ivox
*clefF4	*clefG2	*clefG2	*clefG2	*clefG2	*
*k[b-]	*k[b-]	*k[b-]	*k[b-]	*k[b-]	*
*F:	*F:	*F:	*F:	*F:	*F:
*M3/4	*M3/4	*M3/4	*M3/4	*M3/4	*
*MM92	*MM92	*MM92	*MM92	*MM92	*MM92
8r	8f'/ 8a'/ (8cc'/L	mf	8r	.	.
4c\	8f/ 8a/ 8cc/	.	4r	.	.
.	8f/ 8g#/ 8bn/ 8cc#/J	.	.	.	.
=1	=1	=1	=1	=1	=1
8.C\L	8.e/ 8.b-/ &(8.dd/L&))	<	2.r	.	.
16c#\Jk	(16cc#/Jk	.	.	.	.
8d\L	8dd\L	<	.	.	.
8G\ 8e\J	8ee\ 8bb-\J	.	.	.	.
4A\ 4g\	8.cc#\ 8.aa\L	<	.	.	.
.	16gg\Jk	.	.	.	.
=2	=2	=2	=2	=2	=2
*^	*^	*	*	*	*
2B-\ 2f\	4r	4.gg/	2b-\ 2dd\	>	2.r	.	.
.	4BB-\	.	.	.	.	.	.
.	.	8ff/)	.	.	.	.	.
4BBn\ 4Bn\	4r	(8.ee/L	4f\ 4g#\	.	.	.	.
.	.	16dd/Jk	.	.	.	.	.
=3	=3	=3	=3	=3	=3	=3	=3
4r	8C'\ &(8c'\L&)	8cc/L)	8f\ 8a\	.	2.r	.	.
.	8AA\ ([8G\J	(8c#/	8r	.	.	.	.
8G/L]	4BB-\	8e/	4r	.	.	.	.
8F/J	.	8d/J	.	.	.	.	.
4r	&((4C\&) 4B-\)	8.gn;/L	4e\	.	.	.	.
.	.	16a/Jk)	.	.	.	.	.
*v	*v	*	*	*	*	*	*
*	*v	*v	*	*	*	*
=4	=4	=4	=4	=4	=4
2FF/) 2A/	8f'/L	.	4r	.	.
.	8f'/ 8a'/ 8ccn'/	.	.	.	.
.	8f'/ 8a'/ 8cc'/	.	8r	.	.
.	8f'/ 8a'/ 8cc'/	.	(8cc\	mf	A-
4c\	8f'/ 8a'/ 8cc'/	.	8cc\	.	-cross
.	8f'/ 8g#'/ 8bn'/ &(8cc#'/J&)	.	8bn\	.	the
=5	=5	=5	=5	=5	=5
*^	*	*	*	*	*
4C/	2C\	8e/ 8b-/ 8dd/	.	4.b-\	.	hill
.	.	8dd\ 8ee\ (8bb-\	.	.	.	.
4G/ 4e/	.	8ccn\ 8ee\ 8aa\L	.	.	.	.
.	.	[8b-\ [8ee\ [8gg\J	.	8g/	.	of
4r	&(4C\&)	8b-\] 8ee\] 8gg\L])	>	8.d/	.	late,
.	.	[8d\ [8gn\ [8b-\ ([8dd\J	.	.	.	.
.	.	.	.	16e/	.	came
=6	=6	=6	=6	=6	=6	=6
(4FF/	2FF\	8d/] 8g/] 8b-/] 8dd/L]	.	4d/	.	spring
.	.	8d/ 8g/ 8b-/ 8ee/J	.	.	.	.
8F/)	.	8c'/ 8f'/ 8a'/ 8cc'/)	.	8c/)	.	.
8A'/L	.	8f'\ 8cc'\ (8ff'\L	.	(8a/	.	and
8G#'/	4r	8f'\ 8bn'\ 8ff'\	.	8.g#/	.	stopped
8A'/J	.	8f'\ 8cc'\ 8ff'\J)	.	.	.	.
.	.	.	.	16a/	.	and
=7	=7	=7	=7	=7	=7	=7
[4D/	4D\	8r	.	4.cc\	.	looked
.	.	8ff#\ 8cccn\ (8eee-\L	.	.	.	.
4f#/	4D\] (4A\	8ff#\ 8cccn\ 8dddn\	.	.	.	.
.	.	8ee-\ 8aa\ 8ccc\	.	8ee-\	.	in-
4r	4D\)	8dd\ 8gg\ 8bb-\	.	8dd\	.	-to
.	.	8cc\ 8ff#\ 8aa\J)	.	8cc\	.	this
=8	=8	=8	=8	=8	=8	=8
4G/	[2GG\	8r	.	8.b-\	.	wood
.	.	8cc\ 8ee-\ (8ff#\L	.	.	.	.
.	.	.	.	16a/	.	and
(8d/L	.	8b-\ 8dd\ 8ggn\	.	4g/)	<	called
8e-/J	.	8aa\ 8ccc\	.	.	.	.
&(8G/&) 8d/)	4GG\] 4G\	8gg\ 8bb-\	.	8r	.	.
8r	.	8b-\ 8gg\J)	.	(8dd\	.	and
=9	=9	=9	=9	=9	=9	=9
*	*	*^	*	*	*	*
4r	[4BB-\ [4F\	2r	8.r	.	[2ff\	.	called
.	.	.	16b-'^\ 16dd'^\ (16ffn'^\LK	f	.	.	.
4f/	4BB-\] 4F\] [4B-\	.	8dd'^\ 8ff'^\ 8bb-'^\	.	.	.	.
.	.	.	8b-'^\ 8dd'^\ 8ff'^\J)	.	.	.	.
4r	4B-\]	4ff/ 4bb-/	8g\ 8dd\L	.	8ff\])	.	.
.	.	.	8g#\J	.	(8dd\	.	and
=10	=10	=10	=10	=10	=10	=10	=10
4r	[4FF/ [4C/	2r	8.r	.	2cc\)	.	called.
.	.	.	16cc'\ 16ff'\ (16aa'\LK	.	.	.	.
8c/L	4FF\] 4C\] 4F\	.	8ff'\ 8aa'\ 8ccc'\	.	.	.	.
8d/J	.	.	8cc'\ 8ff'\ 8aa'\J)	.	.	.	.
4F#/ &(4e-/&)	4r	(8.bbn/L	4cc\ 4ee-\ 4ff#\	.	4r	.	.
.	.	16aa/Jk	.	.	.	.	.
=11	=11	=11	=11	=11	=11	=11	=11
8en/L	&(8G'\L&)	8cc'\ 8een'\ 8gg'\)	2r	.	2.r	.	.
8Bn/ 8d/	8E\	8f/ (8g#/L	.	.	.	.	.
8d/	8Fn\	8f/ 8bn/	.	.	.	.	.
8c/J	8F\J	8f/ 8a/	.	.	.	.	.
4G/	4G\	8.dd/	4f\ 4b\	.	.	.	.
.	.	16ee/Jk)	.	.	.	.	.
=12	=12	=12	=12	=12	=12	=12	=12
(4A-/	2.C\	(8.dd/L	4f\ 4bn\	.	4r	.	.
.	.	16ee/Jk)	.	.	.	.	.
[4G/)	.	(8e'/ 8g'/ 8cc'/L	2r	p	4r	.	.
.	.	8e'/ 8g'/ 8cc'/	.	.	.	.	.
8G/]	.	8e'/ 8g'/ 8cc'/	.	.	4c/	.	Now
8r	.	8e'/) 8g'/ 8cc'/J	.	.	.	.	.
*v	*v	*	*	*	*	*	*
*	*v	*v	*	*	*	*
=13	=13	=13	=13	=13	=13
(4C/	8ee-\ 8gg\ 8ccc\L	.	(8.e-/	.	all
.	8ee-\ 8gg\ 8ccc\J	.	.	.	.
.	.	.	16e-/	.	the
4D\	8dd\ 8ff#\ 8bb-\L	.	8d/	.	dry
.	8dd\ 8ff#\ 8bb-\J	.	8f#/	.	brown
4G\	8dd-\ 8ffn\ 8bb-\L	.	8.b-\	.	things
.	8dd-\ 8ff\ 8bb-\J	.	.	.	.
.	.	.	16a/	.	are
=14	=14	=14	=14	=14	=14
4C/	8cc\ 8een\ 8aa\L	.	4a/	.	ans-
.	8cc\ 8ee\ 8aa\J	.	.	.	.
4c\	8b-\ 8ee\ 8gg\L	<	4.g/)	.	-'wring
.	8b-\ 8ee\ 8gg\J	.	.	.	.
4c#\	8b-\ 8ee\ 8gg\L	.	.	.	.
.	8b-\ 8ee\ 8gg\J	.	8g/	.	With
=15	=15	=15	=15	=15	=15
4d\)	8a\ 8dd\ 8ff\L	.	(8.g/	.	here
.	8a\ 8dd\ 8ff\J	.	.	.	.
.	.	.	16f/	.	a
[4F\	8a\ 8dd\ 8ff\L	.	8f/)	.	leaf
.	8a\ 8dd\ 8ff\J	.	(8a/	.	and
4FF/ 4F/]	8f\ 8cc\ 8ee-\L	.	8.dd\	.	there
.	8f\ 8cc\ 8ee-\J	.	.	.	.
.	.	.	16cc\	<	a
=16	=16	=16	=16	=16	=16
4BB-/	8f\ 8cc\ 8ee-\L	.	8cc\	.	fair
.	8f\ 8cc\ 8ee-\J	.	8b-\	.	brown
4BB-^\ 4B-^\	8f/ 8b-/ 8dd/L	.	(2b-\)	<	flow'r,
.	8f/ 8b-/ 8dd/J	.	.	.	.
4AA^\ 4A^\	8d/ 8f/ 8b-/ 8dd/L	.	.	.	.
.	8d/ 8f/ 8b-/ 8dd/J	.	.	.	.
!	!	!	!ddq/)	!.	!.
=17	=17	=17	=17	=17	=17
*^	*	*	*	*	*
2GG^/ 2G^/	4r	8g\ 8b-\ 8dd\ [8ff\L	.	(4ff\	.	I
.	.	8g\ 8b-\ 8ff\J]	.	.	.	.
*clefG2	*clefG2	*	*	*	*	*
.	[8B-/ 8d/ 8g/L	8b-\ 8dd\ [8ff\ [8gg\L	.	8gg\	.	on-
.	8B-/] 8d/ 8f/J	8b-\ 8dd\ 8ff\] 8gg\J]	.	8ff\	.	-ly
4r	[8Bn/ [8e/ [8g#/L	[8bn\ [8ee\ [8gg#\L	.	8.ee\	.	heard
.	8B/] 8d/ 8e/] 8g#/J]	8b\] 8dd\ 8ee\] 8gg#\J]	.	.	.	.
.	.	.	.	16dd\)	.	her
*v	*v	*	*	*	*	*
=18	=18	=18	=18	=18	=18
[2cn/ [2f/ [2a/	[2cc\ [2ff\ [2aa\	.	(4ff\	.	not,
.	.	.	4.cc\)	.	.
8c/] 8f/] 8a/]	8cc\] 8ff\] 8aa\]	.	.	.	.
8r;	8r;	.	(8a/	p	and
*clefF4	*	*	*	*	*
=19	=19	=19	=19	=19	=19
*^	*	*	*	*	*
8r	2.C\	8r	.	[2cc\	.	wait
[8G/	.	8d/ (8f/	pp	.	.	.
2G/]	.	8e/ 8g/L	.	.	.	.
.	.	8f/ 8a/J	.	.	.	.
.	.	&(4g/&) 4b-/)	.	8cc\])	.	.
.	.	.	.	(8g/	.	and
=20	=20	=20	=20	=20	=20	=20
8r	2.FF\	8r	.	[2cc\	.	wait.
[8C/	.	8e/ (8g/	<	.	.	.
2C/]	.	8f/ 8a/L	.	.	.	.
.	.	8g/ 8b-/J	>	.	.	.
.	.	&(4e-/&) 4a/ 4cc/)	.	8cc\])	.	.
.	.	.	.	8r	.	.
*v	*v	*	*	*	*	*
=21	=21	=21	=21	=21	=21
*M4/4	*M4/4	*M4/4	*M4/4	*M4/4	*
1BBB- 1FF	1d 1f 1b- 1dd	ppp	1r	.	.
==	==	==	==	==	==
*-	*-	*-	*-	*-	*-
!!!ENC: Craig Stuart Sapp
!!!END: 2008/07/25/
